public/static/img/crypto/TUSD.svg

<svg width="48" height="48" viewBox="0 0 48 48" fill="none" xmlns="http://www.w3.org/2000/svg">
<g clip-path="url(#clip0_1150_15657)">
<path d="M0 24C0 30.3652 2.52856 36.4697 7.02944 40.9706C11.5303 45.4714 17.6348 48 24 48C30.3652 48 36.4697 45.4714 40.9706 40.9706C45.4714 36.4697 48 30.3652 48 24C48 17.6348 45.4714 11.5303 40.9706 7.02944C36.4697 2.52856 30.3652 0 24 0C17.6348 0 11.5303 2.52856 7.02944 7.02944C2.52856 11.5303 0 17.6348 0 24Z" fill="#1296DB"/>
<path d="M25.5856 28.5419V19.7519H26.7406C30.5581 19.7519 31.4986 16.1924 31.4986 16.1924H21.4741C16.7161 16.1924 15.9091 19.7534 15.9091 19.7534H21.8236V32.9789C21.8236 32.9789 25.5856 31.8494 25.5856 28.5419Z" fill="white"/>
<path d="M36.5925 35.3913C39.9645 31.8873 41.2575 27.0213 40.044 22.3668C39.4036 19.9314 38.1185 17.7136 36.324 15.9468C36.162 15.7878 36 15.6258 35.811 15.4668L35.649 15.3063C35.539 15.2003 35.4217 15.102 35.298 15.0123L35.082 14.8518L34.7595 14.6118L34.569 14.4768C34.4402 14.3925 34.3146 14.3035 34.1925 14.2098L33.948 14.0508C33.8471 13.9775 33.7391 13.9147 33.6255 13.8633L33.3825 13.7028C33.2745 13.6488 33.1665 13.5678 33.0585 13.5153L32.8155 13.3803C32.7075 13.3278 32.5995 13.2738 32.4645 13.2213L32.382 13.1943C32.679 13.4343 32.9745 13.7028 33.2445 13.9698C34.4751 15.19 35.4519 16.6419 36.1185 18.2415C36.7851 19.8412 37.1283 21.5571 37.1283 23.2901C37.1283 25.0231 36.7851 26.739 36.1185 28.3386C35.4519 29.9383 34.4751 31.3901 33.2445 32.6103C26.6655 39.1353 15.987 39.1353 9.40497 32.6103C9.16197 32.3703 8.94597 32.1303 8.70447 31.8903L8.51547 31.6758C8.37414 31.5115 8.23905 31.3419 8.11047 31.1673C8.95652 32.8265 10.0579 34.3425 11.3745 35.6598C18.2505 42.4788 29.4135 42.4788 36.2895 35.6598C36.4093 35.5935 36.5128 35.5012 36.5925 35.3898V35.3913Z" fill="white"/>
<path d="M15.6 33.5789C15.2999 33.3342 15.0116 33.0754 14.736 32.8034C13.5041 31.582 12.5263 30.1288 11.859 28.5276C11.1917 26.9264 10.8481 25.2088 10.8481 23.4741C10.8481 21.7394 11.1917 20.0219 11.859 18.4206C12.5263 16.8194 13.5041 15.3662 14.736 14.1449C21.3225 7.61385 32.01 7.61385 38.5965 14.1449C39.0555 14.6009 39.486 15.0824 39.891 15.5909C39.0441 13.9386 37.942 12.4301 36.6255 11.1209C29.7435 4.29435 18.5685 4.29435 11.6865 11.1209C11.6055 11.2004 11.5245 11.3084 11.4165 11.3879C6.85503 16.1534 6.23403 23.2739 9.87903 28.6814C11.31 30.7664 13.305 32.5064 15.6 33.5789Z" fill="white"/>
</g>
<defs>
<clipPath id="clip0_1150_15657">
<rect width="48" height="48" fill="white"/>
</clipPath>
</defs>
</svg>

<svg width="48" height="48" fill="none" xmlns="http://www.w3.org/2000/svg"><g clip-path="url(#a)"><path d="M0 24a24 24 0 1 0 48 0 24 24 0 0 0-48 0Z" fill="#1296DB"/><path d="M25.586 28.542v-8.79h1.155c3.817 0 4.758-3.56 4.758-3.56H21.474c-4.758 0-5.565 3.561-5.565 3.561h5.915V32.98s3.762-1.13 3.762-4.437Z" fill="#fff"/><path d="M36.593 35.391c3.371-3.504 4.664-8.37 3.451-13.024a14.01 14.01 0 0 0-3.72-6.42c-.162-.16-.324-.321-.513-.48l-.162-.16a3.286 3.286 0 0 0-.351-.295l-.216-.16-.322-.24-.191-.135a6.154 6.154 0 0 1-.377-.267l-.244-.16a1.837 1.837 0 0 0-.322-.187l-.243-.16c-.108-.054-.217-.135-.325-.188l-.242-.135c-.108-.052-.217-.106-.352-.159l-.082-.027c.297.24.593.509.863.776a13.126 13.126 0 0 1 0 18.64c-6.58 6.525-17.258 6.525-23.84 0-.243-.24-.459-.48-.7-.72l-.19-.214a8.598 8.598 0 0 1-.405-.509 17.781 17.781 0 0 0 3.264 4.493c6.876 6.819 18.04 6.819 24.915 0a.921.921 0 0 0 .303-.27v.001Z" fill="#fff"/><path d="M15.6 33.579c-.3-.245-.588-.504-.864-.776a13.138 13.138 0 0 1 0-18.658c6.587-6.531 17.274-6.531 23.86 0 .46.456.89.937 1.295 1.446a17.673 17.673 0 0 0-3.265-4.47c-6.882-6.827-18.057-6.827-24.94 0-.08.08-.162.187-.27.267C6.855 16.153 6.234 23.274 9.88 28.68c1.431 2.085 3.426 3.825 5.721 4.898Z" fill="#fff"/></g><defs><clipPath id="a"><path fill="#fff" d="M0 0h48v48H0z"/></clipPath></defs></svg>
